X: 82
T: No_20_Am_I_an_Eagle?.krn
N: Derived from No_20_Am_I_an_Eagle?.krn
%%abc-version 2.0
%%abcx-abcm2ps-target-version 5.9.1 (29 Sep 2008)
%%abc-creator hum2abc beta
%%abcx-conversion-date 2019/03/15 08:37:56
%%humdrum-veritas 3126534122
%%humdrum-veritas-data 696106841
%%linebreak <none>
%%barnumbers 0
L: 1/8
M: 4/8
K: Db clef=bass
[K:clef=bass][M:4/8]B, B, B, F, ||  
[M:5/8]B,3F,F,/D,/ ||  
[M:4/8]F,2D, z | 
G,2G, F,/D,/ | 
F,2D, B,, | 
B,,3C, | 
C,/B,,3/B,,2 ||  
[M:5/8]B,,2z2B,, ||  
[M:4/8]G,3F, | 
F,/D,3/- D, C, ||  
[M:3/8]C,/B,,3/B,, ||  
[M:4/8]B,,3B,, | 
C,/B,,3/ B,, B,, | 
B,,3B,, | 
C,/B,,3/B,,2 | 
B,,4 |]  



